X:1
T:Bonniest Lass in a’ the Warld [1]
M:C
L:1/8
R:Air
B:William Thomson - Orpheus Caledonius, vol. II (1733, No. 24, p. 98)
B:  https://digital.nls.uk/special-collections-of-printed-music/archive/91481666
N:Thomson (c. 1695-1753) was a Scottish singer and folk song collector
N:who lived in London for most of his adult career.
Z:AK/Fiddler’s Companion
K:F
FG|A2 C2 D2F2|TG3F D2 CE|F2f2|cdf c| d4 c2fg|
agf d c>df A|BAG F D2 CD|F2 f2 cd Bc|A4 {G}F2||
de|fe dc d>ef d|gfe d e>fg e|cd fg afg a|Td4 c2fg|
ag fd c>df A|BA GF D2 CD|F2 f2 cd Bc|TA4 {G}F2||

